src/asset/24px/angle-down.svg

<svg width="24" height="24" viewBox="0 0 24 24" fill="none" xmlns="http://www.w3.org/2000/svg">
<path fill-rule="evenodd" clip-rule="evenodd" d="M3.29289 8.28714C3.68342 7.90392 4.31658 7.90392 4.70711 8.28714L11.2929 14.7497C11.6834 15.1329 12.3166 15.1329 12.7071 14.7497L19.2929 8.28714C19.6834 7.90392 20.3166 7.90392 20.7071 8.28714C21.0976 8.67036 21.0976 9.29168 20.7071 9.6749L14.1213 16.1375C12.9497 17.2871 11.0503 17.2871 9.87868 16.1375L3.29289 9.6749C2.90237 9.29168 2.90237 8.67036 3.29289 8.28714Z" fill="#808080"/>
</svg>

<svg width="24" height="24" fill="none" xmlns="http://www.w3.org/2000/svg"><path fill-rule="evenodd" clip-rule="evenodd" d="M3.293 8.287a1.014 1.014 0 011.414 0l6.586 6.463c.39.383 1.024.383 1.414 0l6.586-6.463a1.014 1.014 0 011.414 0 .968.968 0 010 1.388l-6.586 6.462a3.04 3.04 0 01-4.242 0L3.293 9.675a.968.968 0 010-1.388z" fill="gray"/></svg>
